X:6001
T:Farewell to Ireland
R:Reel
C:Trad.
O:Ireland
Z:Paul Hardy's Possible Tunebook 2015 (see www.paulhardy.net). Creative Commons cc by-nc-sa licenced.
M:2/2
L:1/8
Q:1/2=60
K:G
"Am"A,3C E3F|"G"GEDB, "Em"G,A,B,G,|"Am"A,3C E3F|"G"GED=F "Am"EA,A,G,|
A,3C E3F|"G"GEDB, "Em"G,zgf|"Em"edeg "D"a3f|"G"gedB "Em"BAAB,||
"Am"A,3C "Am"EA,CE|"G"GEDB, "Em"G,A, B,/2A,/2G,|"Am"A,3C "Am"E3F|"Bm"FEDB, "Em"B,A,A,G,|
"Am"A,G,A,C "Am"EA,CF|"G"G/2F/2E DB, "G"DG, G, g|"Em"ede/2f/2g "D"abaf|"G"gedB "Am"eAAg||
K:D
"D"a3 a "Am"agef|"Em"g2af gede|"D"agab "Am"agef|"G"gedB "Em"BAAg|
"Am"agef "Em"g3e|"G"dedB "G"GABd|"A"A/2A/2A cA "Em"Bdef|"G"gedB "D"BAA^g||
"D"a2 Aa "Am"agef|"Em"g3a "G"gedg|"D"a3b "Am"agef|"G"gedB "D"BAAa|
"Am"agef "Em"g3e|"G"d3B "G"GABd|"A"A/2A/2A c/2B/2A "A"ecAa|"G"gedB "D"Aa^ga||
"A"eAc/2B/2A "A"eAc/2B/2A|"G"dGBG "G"dBGd|"A"eAc/2B/2A "Em"Bdef|"G"gedB "D"BAAa|
"A"eAc/2B/2A "A"eAc/2B/2A|"G"d3B "G"GABd|"A"A/2A/2A c/2B/2A "Em"B/2c/2d eg|"G"gedB "D"Aa^ga||
"Am"eAA/2A/2A "A"edce|"G"dGG/2G/2G "G"dGBd|"A"eA c/2B/2A "A"ec Aa|"G"gedB "Em"BA e/2f/2g|
"A"eAc/2B/2A "A"eAc/2B/2A|"G"d3B "G"GABd|"D"A/2A/2A BA "Bm"B/2c/2d ef|"G"gedB "D"BAA^g||
"A"aece "A"aece|"G"gdBd "G"gdBd|"A"aece "D"a3f|"G"gedB "D"BAA^g|
"Am"agef "Em"gage|"G"d2dB "G"GABd|"A"A/2A/2A c/2B/2A "Em"Bdea|"G"gedB "D"BAA^g||
"A"aece "A"aece|"G"gdBd "G"gdBd|"A"aece "D"a3g|"G"gedB "Em"B B GB|
"D"Aa3 "Em"g3e|"G"d3B "G"GABd|"A"A/2A/2A c/2B/2A "Bm"B/2c/2d ef|"G"gedB "Em"BAAB,||

